public/avatar/hat/67.svg

<svg xmlns:xlink="http://www.w3.org/1999/xlink" height="92.9" width="100.7" xmlns="http://www.w3.org/2000/svg"><use height="35.9" transform="translate(16.55 38.75)" width="46.2" xlink:href="#a"/><defs><g id="a"><path d="M-18.9 12.05q.75-.6 2.55 0 .9.3 1.65.75l-.1 2-1.8 4.8.05-.05-1.3 5.05v.15q-3.8-.15-3.7-1.95.1-1.45 2.55-2.35l1.7-.6q-4.65-.1-3.85-2.2.6-1.4 2.95-1.2l2.2.45q-4.05-3.85-2.9-4.85" fill="#d9d722" fill-rule="evenodd" transform="translate(22.1 11)"/><path d="M-14.45 13.05q-1.15-.55-2.35-.85-2.3-.7-2.25.35.1 1.65 2.35 4l-2-.2q-2.05.05-2.45 1.3-.55 2 3.35 2.25l-2.05 1.1q-2 1.25-1.7 2.2.5 1.5 2.6 1.1" fill="none" stroke="#bf8919" stroke-linecap="round" stroke-linejoin="round" transform="translate(22.1 11)"/><path d="m-17.95 12.9 2.5 1m-3.8 3.3 2.45.2m-3.3 4.65 1.7-1.1" fill="none" stroke="#faf02e" stroke-linecap="round" stroke-linejoin="round" transform="translate(22.1 11)"/><path d="M17.65 19.1q2.05.35 2.45 1.15.45.9-.85 1.8-1.15.8-2.3.75l-1.05-3.85 1.75.15m1.55-6.2q.25 2.1-3.8 2.75 4.95.1 4.55 1.75-.35 1.55-4.05 1.5l-1.5-4.05-.7-2.45 2.65-.55q2.7-.3 2.85 1.05" fill="#d9d722" fill-rule="evenodd" transform="translate(22.1 11)"/><path d="M17.2 23.3q2.85-.9 3.15-2.15.35-1.65-3.75-2.15 3.35-.35 3.35-1.6 0-.8-2.05-1.3l-2.05-.4" fill="none" stroke="#bf8919" stroke-linecap="round" stroke-linejoin="round" transform="translate(22.1 11)"/><path d="m16.7 19.5 1.9.5m-1.9-3.35 2 .35" fill="none" stroke="#faf02e" stroke-linecap="round" stroke-linejoin="round" transform="translate(22.1 11)"/><path d="M23.25 8.45q-.75 2.1-1.5 2.95l-2 1.65h1.6l1.9-.65q-1.65 2.15-2.75 2.55-2.5 1-4.65.75-3.15-.35-6-2.25-1.4-.95-4.4-4.25l-2.7-3.15 9.1-1.35 1.35 1.75q1.1 2.65 2.4 3.05 2.35.75 7.65-1.05" fill="#f8ea2e" fill-rule="evenodd" transform="translate(22.1 11)"/><path d="m6.2 6.9.9 1.5q1.2 1.75 2.75 3 2.5 2 5.35 2.1M8.85 6.65l1.75 2.6m6 6 1 .25 2-.1q1.35-.5 1.85-1m-3.5-1.9 2.65-.85 1.85-1.4" fill="none" stroke="#f8a140" stroke-linecap="round" stroke-linejoin="round" transform="translate(22.1 11)"/><path d="m3.7 7.25 2.6 3.05q3.05 3.2 5.15 4.2 4.7 2.3 8 1.4 2.25-.65 4.15-3l-3.4.35 2.25-3 .8-1.8q-5.15 2.3-7.65 1.05-1.55-.8-2.05-2.9l-.2-1.95" fill="none" stroke="#bf8919" stroke-linecap="round" stroke-linejoin="round" transform="translate(22.1 11)"/><path d="M-8.15 5.7q-1.75 4.35-4.4 7.7-2.65 3.3-4.6 4.65 1.85-8 3.2-9.65l3.15-3.7 2.65 1" fill="#f8ea2e" fill-rule="evenodd" transform="translate(22.1 11)"/><path d="M-11.9 6.15q-2.4 2.15-3.55 5.9-1.2 3.75-1.45 5.6 3.2-2.5 4.95-4.45 1.75-1.9 3.8-5.8" fill="none" stroke="#bf8919" stroke-linecap="round" stroke-linejoin="round" transform="translate(22.1 11)"/><path d="M-9.05 8.3q-3.1 4.65-4.5 5.85" fill="none" stroke="#f8a140" stroke-linecap="round" stroke-linejoin="round" transform="translate(22.1 11)"/><path d="m10.8 4.5 1.45 2.95q-3.5 3.85-6.3 4.6L.1 12.7l-4.85-.55q-2.8-.65-5.05-2.25l-2.65-2 1.55-3.3 7.35 1.25q2.7.4 6.2-.1L8.5 4.9l2.3-.4" fill-opacity=".322" fill-rule="evenodd" transform="translate(22.1 11)"/><path d="M5.4-8.4q2.25.1 2.9.55.7.4 1.5 3.35h1q.45 0 1.3-1.05 1.25-1.6 2.35-1.4 1.55.2 3.15 3.8.55 1.3.55 3.75-.05 2.7-.95 3.9-1.25 1.7-6 3.35-6 2.05-13.05 1.9Q-8.7 9.6-14.1 7.4q-4.05-1.65-4.95-3.05-1.85-2.8-.3-8.15.65-2.15 1.85-2.45 1.15-.3 2.8 1.55 1.35 1.35 1.75 1.35l2.1-.15.5-1.85q1.15-4.3 2.4-5.05 2.7-1.45 7.65.75 1.05.45 2.05.85l3.65.4m3.6 5L7.75-7.05l-2.5-.35-3.8-.45L-2.9-9.6l-4.55.1Q-8.3-9.05-9-6.55l-.85 3-.3 1-.35.05-2.4.15q-.7.05-3.1-2.3-1.6-1.55-2.4 1.1-.7 2.5-.65 4.35.05 1.8.85 3 .75 1.15 4.5 2.65 5.2 2.15 11.85 2.3Q5 8.9 10.8 6.95q4.5-1.55 5.6-3.05.7-.95.7-3.35 0-2.2-.45-3.3-1.8-4.1-3.1-2.9l-1.2 1.35q-.8.8-1.55.8l-1.2.05-.6.05" fill="#ae0c30" fill-rule="evenodd" transform="translate(22.1 11)"/><path d="m-10.15-2.55-.15.45-.65 1.95-.15-.15-.05.95-.35 2V.35l1-2.85.35-.05" fill="#fa8eea" fill-rule="evenodd" transform="translate(22.1 11)"/><path d="m-6.45 5.55-1.65-.3.65.1 1 .2" fill="#fbaaef" fill-rule="evenodd" transform="translate(22.1 11)"/><path d="m-10.15-2.55.3-1 .85-3q.7-2.5 1.55-2.95l4.55-.1 4.35 1.75 3.8.45 2.5.35L9-3.4l.4 1.3.25.9L6.1.65q-4.2 2-6.65 2.15Q-3 2.9-6.7 1.65-9.95.6-10.95-.15l.65-1.95.15-.45" fill="#fbaadd" fill-rule="evenodd" transform="translate(22.1 11)"/><path d="M-10.95-.15q1 .75 4.25 1.8Q-3 2.9-.55 2.8 1.9 2.65 6.1.65L9.65-1.2l-.25-.9L9-3.4l.6-.05 1.2-.05q.75 0 1.55-.8l1.2-1.35q1.3-1.2 3.1 2.9.45 1.1.45 3.3 0 2.4-.7 3.35-1.1 1.5-5.6 3.05Q5 8.9-1.85 8.75-8.5 8.6-13.7 6.45q-3.75-1.5-4.5-2.65-.8-1.2-.85-3-.05-1.85.65-4.35.8-2.65 2.4-1.1 2.4 2.35 3.1 2.3l2.4-.15-1 2.85v2.3l.35-2 .05-.95.15.15M9.65-1.2l.05-.05q.6 3.2.05 3.85-.55.65-2.3 1.3-6 2.25-7.85 2.35l-6.05-.7 6.05.7q1.85-.1 7.85-2.35 1.75-.65 2.3-1.3.55-.65-.05-3.85l-.05.05M-8.1 5.25l1.65.3-1-.2-.65-.1q-1.85-.4-2.55-.9l-.55-.6q-.3-.55-.2-1.2l.25-1.9-.25 1.9q-.1.65.2 1.2l.55.6q.7.5 2.55.9m-3.1-1.5-.25-.5-.05-.6.05.6.25.5" fill="#f88fc9" fill-rule="evenodd" transform="translate(22.1 11)"/><path d="m-9.85-3.55-.65 1.05-1 2.85v2.3l.05.6M9.4-4.3l.85 3.5.15 2.95m2.8 2.35 2.15-2q.2-.45-.7-1l-1.2-.85.4-1.15m-30 4.4-1.65-1.75q1.65-.5 2-1V-.5" fill="none" stroke="#d76498" stroke-linecap="round" stroke-linejoin="round" transform="translate(22.1 11)"/><path d="m-1.45-7.8 3.4 1.95 2.4-.85m-12.2-.1q.1 3.85-.45 4.8-.65 1.2-1.55 1.2" fill="none" stroke="#e970be" stroke-linecap="round" stroke-linejoin="round" transform="translate(22.1 11)"/><path d="M.7-3.85h3.85l1.8-1m6.85.8 1.35-.8q.5.15 1 1.3l.5 3.85m-32.7-5-.8.45q-.85.6-.85 1.2 0 1-.75 3.85" fill="none" stroke="#fad1e9" stroke-linecap="round" stroke-linejoin="round" transform="translate(22.1 11)"/></g></defs></svg>

<?xml version="1.0" encoding="UTF-8" standalone="no"?>
<svg xmlns:xlink="http://www.w3.org/1999/xlink" height="92.9px" width="100.7px" xmlns="http://www.w3.org/2000/svg">
  <g transform="matrix(1.0, 0.0, 0.0, 1.0, 38.65, 49.75)">
    <use height="35.9" transform="matrix(1.0, 0.0, 0.0, 1.0, -22.1, -11.0)" width="46.2" xlink:href="#shape0"/>
  </g>
  <defs>
    <g id="shape0" transform="matrix(1.0, 0.0, 0.0, 1.0, 22.1, 11.0)">
      <path d="M-18.9 12.05 Q-18.15 11.45 -16.35 12.05 -15.45 12.35 -14.7 12.8 L-14.8 14.8 -16.6 19.6 -16.55 19.55 -17.85 24.6 -17.85 24.75 Q-21.65 24.6 -21.55 22.8 -21.45 21.35 -19.0 20.45 L-17.3 19.85 Q-21.95 19.75 -21.15 17.65 -20.55 16.25 -18.2 16.45 L-16.0 16.9 Q-20.05 13.05 -18.9 12.05" fill="#d9d722" fill-rule="evenodd" stroke="none"/>
      <path d="M-14.45 13.05 Q-15.6 12.5 -16.8 12.2 -19.1 11.5 -19.05 12.55 -18.95 14.2 -16.7 16.55 L-18.7 16.35 Q-20.75 16.4 -21.15 17.65 -21.7 19.65 -17.8 19.9 L-19.85 21.0 Q-21.85 22.25 -21.55 23.2 -21.05 24.7 -18.95 24.3" fill="none" stroke="#bf8919" stroke-linecap="round" stroke-linejoin="round" stroke-width="1.0"/>
      <path d="M-17.95 12.9 L-15.45 13.9" fill="none" stroke="#faf02e" stroke-linecap="round" stroke-linejoin="round" stroke-width="1.0"/>
      <path d="M-19.25 17.2 L-16.8 17.4" fill="none" stroke="#faf02e" stroke-linecap="round" stroke-linejoin="round" stroke-width="1.0"/>
      <path d="M-20.1 22.05 L-18.4 20.95" fill="none" stroke="#faf02e" stroke-linecap="round" stroke-linejoin="round" stroke-width="1.0"/>
      <path d="M17.65 19.1 Q19.7 19.45 20.1 20.25 20.55 21.15 19.25 22.05 18.1 22.85 16.95 22.8 L15.9 18.95 17.65 19.1 M19.2 12.9 Q19.45 15.0 15.4 15.65 20.35 15.75 19.95 17.4 19.6 18.95 15.9 18.9 L14.4 14.85 13.7 12.4 16.35 11.85 Q19.05 11.55 19.2 12.9" fill="#d9d722" fill-rule="evenodd" stroke="none"/>
      <path d="M17.2 23.3 Q20.05 22.4 20.35 21.15 20.7 19.5 16.6 19.0 19.95 18.65 19.95 17.4 19.95 16.6 17.9 16.1 L15.85 15.7" fill="none" stroke="#bf8919" stroke-linecap="round" stroke-linejoin="round" stroke-width="1.0"/>
      <path d="M16.7 19.5 L18.6 20.0" fill="none" stroke="#faf02e" stroke-linecap="round" stroke-linejoin="round" stroke-width="1.0"/>
      <path d="M16.7 16.65 L18.7 17.0" fill="none" stroke="#faf02e" stroke-linecap="round" stroke-linejoin="round" stroke-width="1.0"/>
      <path d="M23.25 8.45 Q22.5 10.55 21.75 11.4 L19.75 13.05 21.35 13.05 23.25 12.4 Q21.6 14.55 20.5 14.95 18.0 15.95 15.85 15.7 12.7 15.35 9.85 13.45 8.45 12.5 5.45 9.2 L2.75 6.05 11.85 4.7 13.2 6.45 Q14.3 9.1 15.6 9.5 17.95 10.25 23.25 8.45" fill="#f8ea2e" fill-rule="evenodd" stroke="none"/>
      <path d="M6.2 6.9 L7.1 8.4 Q8.3 10.15 9.85 11.4 12.35 13.4 15.2 13.5" fill="none" stroke="#f8a140" stroke-linecap="round" stroke-linejoin="round" stroke-width="1.0"/>
      <path d="M8.85 6.65 L10.6 9.25" fill="none" stroke="#f8a140" stroke-linecap="round" stroke-linejoin="round" stroke-width="1.0"/>
      <path d="M16.6 15.25 L17.6 15.5 19.6 15.4 Q20.95 14.9 21.45 14.4" fill="none" stroke="#f8a140" stroke-linecap="round" stroke-linejoin="round" stroke-width="1.0"/>
      <path d="M17.95 12.5 L20.6 11.65 22.45 10.25" fill="none" stroke="#f8a140" stroke-linecap="round" stroke-linejoin="round" stroke-width="1.0"/>
      <path d="M3.7 7.25 L6.3 10.3 Q9.35 13.5 11.45 14.5 16.15 16.8 19.45 15.9 21.7 15.25 23.6 12.9 L20.2 13.25 22.45 10.25 23.25 8.45 Q18.1 10.75 15.6 9.5 14.05 8.7 13.55 6.6 L13.35 4.65" fill="none" stroke="#bf8919" stroke-linecap="round" stroke-linejoin="round" stroke-width="1.0"/>
      <path d="M-8.15 5.7 Q-9.9 10.05 -12.55 13.4 -15.2 16.7 -17.15 18.05 -15.3 10.05 -13.95 8.4 L-10.8 4.7 -8.15 5.7" fill="#f8ea2e" fill-rule="evenodd" stroke="none"/>
      <path d="M-11.9 6.15 Q-14.3 8.3 -15.45 12.05 -16.65 15.8 -16.9 17.65 -13.7 15.15 -11.95 13.2 -10.2 11.3 -8.15 7.4" fill="none" stroke="#bf8919" stroke-linecap="round" stroke-linejoin="round" stroke-width="1.0"/>
      <path d="M-9.05 8.3 Q-12.15 12.95 -13.55 14.15" fill="none" stroke="#f8a140" stroke-linecap="round" stroke-linejoin="round" stroke-width="1.0"/>
      <path d="M10.8 4.5 L12.25 7.45 Q8.75 11.3 5.95 12.05 L0.1 12.7 -4.75 12.15 Q-7.55 11.5 -9.8 9.9 L-12.45 7.9 -10.9 4.6 -3.55 5.85 Q-0.85 6.25 2.65 5.75 L8.5 4.9 10.8 4.5" fill="#000000" fill-opacity="0.32156864" fill-rule="evenodd" stroke="none"/>
      <path d="M5.4 -8.4 Q7.65 -8.3 8.3 -7.85 9.0 -7.45 9.8 -4.5 L10.8 -4.5 Q11.25 -4.5 12.1 -5.55 13.35 -7.15 14.45 -6.95 16.0 -6.75 17.6 -3.15 18.15 -1.85 18.15 0.6 18.1 3.3 17.2 4.5 15.95 6.2 11.2 7.85 5.2 9.9 -1.85 9.75 -8.7 9.6 -14.1 7.4 -18.15 5.75 -19.05 4.35 -20.9 1.55 -19.35 -3.8 -18.7 -5.95 -17.5 -6.25 -16.35 -6.55 -14.7 -4.7 -13.35 -3.35 -12.95 -3.35 L-10.85 -3.5 -10.35 -5.35 Q-9.2 -9.65 -7.95 -10.4 -5.25 -11.85 -0.3 -9.65 0.75 -9.2 1.75 -8.8 L5.4 -8.4 M9.0 -3.4 L7.75 -7.05 5.25 -7.4 1.45 -7.85 -2.9 -9.6 -7.45 -9.5 Q-8.3 -9.05 -9.0 -6.55 L-9.85 -3.55 -10.15 -2.55 -10.5 -2.5 -12.9 -2.35 Q-13.6 -2.3 -16.0 -4.65 -17.6 -6.2 -18.4 -3.55 -19.1 -1.05 -19.05 0.8 -19.0 2.6 -18.2 3.8 -17.45 4.95 -13.7 6.45 -8.5 8.6 -1.85 8.75 5.0 8.9 10.8 6.95 15.3 5.4 16.4 3.9 17.1 2.95 17.1 0.55 17.1 -1.65 16.65 -2.75 14.85 -6.85 13.55 -5.65 L12.35 -4.3 Q11.55 -3.5 10.8 -3.5 L9.6 -3.45 9.0 -3.4" fill="#ae0c30" fill-rule="evenodd" stroke="none"/>
      <path d="M-10.15 -2.55 L-10.3 -2.1 -10.95 -0.15 -11.1 -0.3 -11.15 0.65 -11.5 2.65 -11.5 0.35 -10.5 -2.5 -10.15 -2.55" fill="#fa8eea" fill-rule="evenodd" stroke="none"/>
      <path d="M-6.45 5.55 L-8.1 5.25 -7.45 5.35 -6.45 5.55" fill="#fbaaef" fill-rule="evenodd" stroke="none"/>
      <path d="M-10.15 -2.55 L-9.85 -3.55 -9.0 -6.55 Q-8.3 -9.05 -7.45 -9.5 L-2.9 -9.6 1.45 -7.85 5.25 -7.4 7.75 -7.05 9.0 -3.4 9.4 -2.1 9.65 -1.2 6.1 0.65 Q1.9 2.65 -0.55 2.8 -3.0 2.9 -6.7 1.65 -9.95 0.6 -10.95 -0.15 L-10.3 -2.1 -10.15 -2.55" fill="#fbaadd" fill-rule="evenodd" stroke="none"/>
      <path d="M-10.95 -0.15 Q-9.95 0.6 -6.7 1.65 -3.0 2.9 -0.55 2.8 1.9 2.65 6.1 0.65 L9.65 -1.2 9.4 -2.1 9.0 -3.4 9.6 -3.45 10.8 -3.5 Q11.55 -3.5 12.35 -4.3 L13.55 -5.65 Q14.85 -6.85 16.65 -2.75 17.1 -1.65 17.1 0.55 17.1 2.95 16.4 3.9 15.3 5.4 10.8 6.95 5.0 8.9 -1.85 8.75 -8.5 8.6 -13.7 6.45 -17.45 4.95 -18.2 3.8 -19.0 2.6 -19.05 0.8 -19.1 -1.05 -18.4 -3.55 -17.6 -6.2 -16.0 -4.65 -13.6 -2.3 -12.9 -2.35 L-10.5 -2.5 -11.5 0.35 -11.5 2.65 -11.15 0.65 -11.1 -0.3 -10.95 -0.15 M9.65 -1.2 L9.7 -1.25 Q10.3 1.95 9.75 2.6 9.2 3.25 7.45 3.9 1.45 6.15 -0.4 6.25 L-6.45 5.55 -0.4 6.25 Q1.45 6.15 7.45 3.9 9.2 3.25 9.75 2.6 10.3 1.95 9.7 -1.25 L9.65 -1.2 M-8.1 5.25 L-6.45 5.55 -7.45 5.35 -8.1 5.25 Q-9.95 4.85 -10.65 4.35 L-11.2 3.75 Q-11.5 3.2 -11.4 2.55 L-11.15 0.65 -11.4 2.55 Q-11.5 3.2 -11.2 3.75 L-10.65 4.35 Q-9.95 4.85 -8.1 5.25 M-11.2 3.75 L-11.45 3.25 -11.5 2.65 -11.45 3.25 -11.2 3.75" fill="#f88fc9" fill-rule="evenodd" stroke="none"/>
      <path d="M-9.85 -3.55 L-10.5 -2.5 -11.5 0.35 -11.5 2.65 -11.45 3.25 M9.4 -4.3 L10.25 -0.8 10.4 2.15 M13.2 4.5 L15.35 2.5 Q15.55 2.05 14.65 1.5 L13.45 0.65 13.85 -0.5 M-16.15 3.9 L-17.8 2.15 Q-16.15 1.65 -15.8 1.15 L-15.8 -0.5" fill="none" stroke="#d76498" stroke-linecap="round" stroke-linejoin="round" stroke-width="1.0"/>
      <path d="M-1.45 -7.8 L1.95 -5.85 4.35 -6.7 M-7.85 -6.8 Q-7.75 -2.95 -8.3 -2.0 -8.95 -0.8 -9.85 -0.8" fill="none" stroke="#e970be" stroke-linecap="round" stroke-linejoin="round" stroke-width="1.0"/>
      <path d="M0.7 -3.85 L4.55 -3.85 6.35 -4.85 M13.2 -4.05 L14.55 -4.85 Q15.05 -4.7 15.55 -3.55 L16.05 0.3 M-16.65 -4.7 L-17.45 -4.25 Q-18.3 -3.65 -18.3 -3.05 -18.3 -2.05 -19.05 0.8" fill="none" stroke="#fad1e9" stroke-linecap="round" stroke-linejoin="round" stroke-width="1.0"/>
    </g>
  </defs>
</svg>
